X:1
T: Coldingham
C:Muriel A Johnstone
R:Jig
%Q:180
K:A
M:6/8
L:1/16
E2|A2A2A2 c4e2|f4e2 a2f2e2|f2e2c2 e2c2A2|B2A2F2 F4E2|A2A2A2 c4e2|f4e2 a2f2e2|f2e2c2 e2c2B2|c2A2A2 A4E2|
A2A2A2 c4e2|f4e2 a2f2e2|f2e2c2 e2c2A2|B2A2F2 F4E2|A2A2A2 c4e2|f4e2 a2f2e2|f2e2c2 e2c2B2|c2A2A2 A4e2|
f4e2 a2f2e2|f2e2c2 e2c2A2|B2A2F2 F2G2A2|F4E2 E2F2G2|A4A2 E2F2A2|B4A2 c2B2c2|A4f2 e2c2B2|c2A2A2 A2c2e2|
f4e2 a2f2e2|f2e2c2 e2c2A2|B2A2F2 F2G2A2|F4E2 E2F2G2|A4A2 E2F2A2|B4A2 c2B2c2|A4f2 e2c2B2|c2A2A2 A4||
